X:1
T:Commendatio, 11.10.11.10
T:Commendatio, 11.10.11.10
T:John Bacchus Dykes, 1868
T:Public Domain Courtesy of the Cyber Hymnal™
C:John Bacchus Dykes, 1868
Z:Public Domain
Z:Courtesy of the Cyber Hymnal™
%%score ( 1 2 ) ( 3 4 )
L:1/8
Q:1/4=107
M:6/4
K:Eb
V:1 treble 
V:2 treble 
V:3 bass 
V:4 bass 
V:1
 [EG]2 [EG]2 [EG]2 | [CF]2 [_DG]2 [CA]3 [CF] [B,E]2 [B,=D]2 | [DF]4 E2 [B,E]2 [A,A]2 E2 | %3
 [EF]2 [_DB]2 [CB]3 [EA] [DA]2 [DG]2 | [CA]6 [CA]2 [FA]2 [FA]2 | %5
 [EG]2 C2 [CF]3 [CA] [=B,G]2 [B,F]2 | F4 [CE]2 [CE]2 [CE]2 [CE]2 | %7
 E2 [EF]2 [EG]3 [EA] [DG]2 [DF]2 | [DF]4 E2 |] %9
V:2
 x6 | x12 | x4 E2 x2 E2 x2 | x12 | x12 | x2 C2 x8 | (D2 =B,2) x8 | E2 x10 | x4 E2 |] %9
V:3
 [E,B,]2 [E,B,]2 [E,B,]2 | A,2 [=E,B,]2 [F,A,]3 [A,,A,] [B,,G,]2 [B,,F,]2 | %2
 (A,2 F,2) [E,G,]2 [_D,G,]2 [C,E,]2 [C,A,]2 | [_D,A,]2 [D,F,]2 E,3 [E,C] [E,B,]2 [E,B,]2 | %4
 A,6 [F,A,]2 [F,C]2 [F,C]2 | [C,C]2 [E,G,]2 [D,A,]3 [D,F,] [D,G,]2 [D,G,]2 | %6
 (A,2 F,2) [C,G,]2 [C,G,]2 [C,A,]2 [C,G,]2 | [F,=A,]2 [F,A,]2 [B,,B,]3 [B,,C] [B,,B,]2 [B,,_A,]2 | %8
 [B,,A,]4 [E,G,]2 |] %9
V:4
 x6 | A,2 x10 | B,,4 x8 | x4 E,3 x5 | A,6 x6 | x12 | C,4 x8 | x12 | x6 |] %9

